svg/fluentui-system-icons/ic_fluent_window_ad_20_filled.svg

<svg width="20" height="20" viewBox="0 0 20 20" fill="none" xmlns="http://www.w3.org/2000/svg">
<path d="M6.5 8C6.22386 8 6 8.22386 6 8.5V12.5C6 12.7761 6.22386 13 6.5 13H10.5C10.7761 13 11 12.7761 11 12.5V8.5C11 8.22386 10.7761 8 10.5 8H6.5ZM10 9V12H7V9H10ZM3 5.5C3 4.11929 4.11929 3 5.5 3H14.5C15.8807 3 17 4.11929 17 5.5V14.5C17 15.8807 15.8807 17 14.5 17H5.5C4.11929 17 3 15.8807 3 14.5V5.5ZM4.5 7V14.25C4.5 14.9404 5.05964 15.5 5.75 15.5H14.25C14.9404 15.5 15.5 14.9404 15.5 14.25V7H4.5Z" fill="#212121"/>
</svg>

<svg xmlns="http://www.w3.org/2000/svg" width="20" height="20"><path d="M6.5 8a.5.5 0 0 0-.5.5v4a.5.5 0 0 0 .5.5h4a.5.5 0 0 0 .5-.5v-4a.5.5 0 0 0-.5-.5h-4ZM10 9v3H7V9h3ZM3 5.5A2.5 2.5 0 0 1 5.5 3h9A2.5 2.5 0 0 1 17 5.5v9a2.5 2.5 0 0 1-2.5 2.5h-9A2.5 2.5 0 0 1 3 14.5v-9ZM4.5 7v7.25c0 .69.56 1.25 1.25 1.25h8.5c.69 0 1.25-.56 1.25-1.25V7h-11Z"/></svg>
